X: 8
T: The Handsome Young Maidens
R: jig
M: 6/8
L: 1/8
K: Amaj
|:g|aed cdB|Ace aga|bee dee|bee bag|
aed cdB|Ace aga|bge dBG|BAG A2:|
B|c2 A EAc|dff fed|cde aec|Bff fed|
c2 A EAc|dff fed|cde aec|dBe A2 B|
c2 A EAc|dff fed|cde aec|Bff fed|
cAA eAA|dAA fed|ece fdf|gfg a3||

%%newpage
%% header "Lisa is Extra		$P"

